speaky-school/img/rubl.svg

<svg width="11" height="14" viewBox="0 0 11 14" fill="none" xmlns="http://www.w3.org/2000/svg">
<path d="M1.86161 13.5V11.322H0.349609V10.062H1.86161V8.91H0.349609V7.47H1.86161V0.719999H6.28961C7.10561 0.719999 7.80161 0.923999 8.37761 1.332C8.95361 1.728 9.39161 2.238 9.69161 2.862C10.0036 3.486 10.1596 4.134 10.1596 4.806C10.1596 5.502 10.0156 6.168 9.72761 6.804C9.43961 7.428 9.01361 7.938 8.44961 8.334C7.89761 8.718 7.21361 8.91 6.39761 8.91H3.48161V10.062H6.30761V11.322H3.48161V13.5H1.86161ZM3.48161 7.47H6.30761C6.87161 7.47 7.31561 7.35 7.63961 7.11C7.96361 6.87 8.19161 6.546 8.32361 6.138C8.45561 5.73 8.52161 5.286 8.52161 4.806C8.52161 4.05 8.33561 3.42 7.96361 2.916C7.59161 2.412 6.99761 2.16 6.18161 2.16H3.48161V7.47Z" fill="black"/>
</svg>

<svg width="11" height="14" fill="none" xmlns="http://www.w3.org/2000/svg"><path d="M1.862 13.5v-2.178H.35v-1.26h1.512V8.91H.35V7.47h1.512V.72H6.29c.816 0 1.512.204 2.088.612a3.855 3.855 0 0 1 1.314 1.53c.312.624.468 1.272.468 1.944a4.79 4.79 0 0 1-.432 1.998 3.768 3.768 0 0 1-1.278 1.53c-.552.384-1.236.576-2.052.576H3.482v1.152h2.826v1.26H3.482V13.5h-1.62zm1.62-6.03h2.826c.564 0 1.008-.12 1.332-.36.324-.24.552-.564.684-.972.132-.408.198-.852.198-1.332 0-.756-.186-1.386-.558-1.89-.372-.504-.966-.756-1.782-.756h-2.7v5.31z" fill="#000"/></svg>
